Newaita-dark/apps/48/com.github.lainsce.coin.svg

<svg height="48" viewBox="0 0 48 48" width="48" xmlns="http://www.w3.org/2000/svg" xmlns:xlink="http://www.w3.org/1999/xlink"><linearGradient id="a"><stop offset="0" stop-opacity=".313726"/><stop offset=".222222" stop-opacity=".27451"/><stop offset="1" stop-opacity="0"/></linearGradient><radialGradient id="b" cx="450.908936" cy="189.579361" gradientTransform="matrix(.00000026 -.117199 -.210958 -.00000015 66.784728 95.392994)" gradientUnits="userSpaceOnUse" r="21.166656" xlink:href="#a"/><radialGradient id="c" cx="450.908936" cy="189.579361" gradientTransform="matrix(-.00000026 .117199 .210958 .00000015 -19.155178 -11.291223)" gradientUnits="userSpaceOnUse" r="21.166656" xlink:href="#a"/><radialGradient id="d" cx="450.908936" cy="189.579361" gradientTransform="matrix(-.00000026 -.117199 .210958 -.00000015 -19.155178 95.392994)" gradientUnits="userSpaceOnUse" r="21.166656" xlink:href="#a"/><radialGradient id="e" cx="450.908936" cy="189.579361" gradientTransform="matrix(.00000026 .117199 -.210958 .00000015 66.784725 -11.291224)" gradientUnits="userSpaceOnUse" r="21.166656" xlink:href="#a"/><linearGradient id="f" gradientTransform="matrix(.0200401 0 0 .093759 18.698079 20.158175)" gradientUnits="userSpaceOnUse" x1="255.323059" x2="255.323044" y1="233.5" y2="254.666656"><stop offset="0" stop-opacity=".27451"/><stop offset="1" stop-opacity="0"/></linearGradient><linearGradient id="g" gradientUnits="userSpaceOnUse" x1="23.814786" x2="23.814786" y1="4.34415649995" y2="42.0509015"><stop offset="0" stop-color="#ffb74d"/><stop offset="1" stop-color="#ffa726"/></linearGradient><linearGradient id="h" gradientTransform="matrix(.093759 0 0 -.093759 0 20.158175)" gradientUnits="userSpaceOnUse" x1="254" x2="254" y1="-201.75" y2="136.916672"><stop offset="0" stop-color="#e0e0e0"/><stop offset="1" stop-color="#bdbdbd"/></linearGradient><linearGradient id="i" gradientUnits="userSpaceOnUse" x1="23.814786" x2="23.814786" y1="4.34415649995" y2="42.0509015"><stop offset="0" stop-color="#616161"/><stop offset="1" stop-color="#424242"/></linearGradient><path d="m27.289062 42.050781h3.96875v-1.984375h-3.96875zm0 0" fill="url(#b)"/><path d="m20.339844 42.050781h-3.96875v1.984375h3.96875zm0 0" fill="url(#c)"/><path d="m20.339844 42.050781h-3.96875v-1.984375h3.96875zm0 0" fill="url(#d)"/><path d="m27.289062 42.050781h3.96875v1.984375h-3.96875zm0 0" fill="url(#e)"/><path d="m20.339844 41.554688h6.949218v2.480468h-6.949218zm0 0" fill="url(#f)"/><path d="m23.816406 4.34375c10.410156 0 18.851563 8.441406 18.851563 18.855469 0 10.410156-8.441407 18.851562-18.851563 18.851562-10.414062 0-18.855468-8.441406-18.855468-18.851562 0-10.414063 8.441406-18.855469 18.855468-18.855469zm0 0" fill="url(#g)"/><path d="m23.816406 42.050781c-10.445312 0-18.855468-8.410156-18.855468-18.851562 0-.0625 0-.125 0-.1875.101562 10.359375 8.472656 18.667969 18.855468 18.667969 10.382813 0 18.753906-8.308594 18.851563-18.667969v.1875c0 10.441406-8.410157 18.851562-18.851563 18.851562zm0 0" fill-opacity=".196078"/><path d="m23.816406 4.34375c-10.445312 0-18.855468 8.410156-18.855468 18.855469v.183593c.101562-10.359374 8.472656-18.667968 18.855468-18.667968 10.382813 0 18.753906 8.308594 18.851563 18.667968 0-.0625 0-.125 0-.183593 0-10.445313-8.410157-18.855469-18.851563-18.855469zm0 0" fill="#fff" fill-opacity=".392157"/><path d="m23.816406 4.203125c-10.523437 0-18.996094 8.472656-18.996094 18.996094 0 10.519531 8.472657 18.992187 18.996094 18.992187 10.519532 0 18.992188-8.472656 18.992188-18.992187 0-10.523438-8.472656-18.996094-18.992188-18.996094zm0 .28125c10.367188 0 18.710938 8.34375 18.710938 18.714844 0 10.367187-8.34375 18.710937-18.710938 18.710937-10.371094 0-18.714844-8.34375-18.714844-18.710937 0-10.371094 8.34375-18.714844 18.714844-18.714844zm0 0" fill="#212121"/><path d="m23.816406 39.074219c8.765625 0 15.875-7.109375 15.875-15.875 0-8.769531-7.109375-15.878907-15.875-15.878907-8.769531 0-15.878906 7.109376-15.878906 15.878907 0 8.765625 7.109375 15.875 15.878906 15.875zm0 0" fill="url(#h)"/><path d="m7.941406 23.570312c0 .121094-.003906.246094-.003906.371094 0 8.796875 7.082031 15.875 15.878906 15.875 8.792969 0 15.875-7.078125 15.875-15.875 0-.125 0-.25-.003906-.371094-.195312 8.621094-7.203125 15.503907-15.871094 15.503907-8.671875 0-15.675781-6.882813-15.875-15.503907zm0 0" fill="#fff" fill-opacity=".392157"/><path d="m23.816406 7.320312c-8.796875 0-15.878906 7.082032-15.878906 15.878907 0 .078125 0 .160156.003906.242187.132813-8.679687 7.164063-15.625 15.875-15.625 8.710938 0 15.738282 6.945313 15.871094 15.625.003906-.082031.003906-.164062.003906-.242187 0-8.796875-7.082031-15.878907-15.875-15.878907zm0 0" fill-opacity=".235294"/><path d="m254.017409-201.751869c93.491072 0 169.317165 75.826092 169.317165 169.317165 0 93.532734-75.826093 169.358827-169.317165 169.358827-93.532735 0-169.358827-75.826093-169.358827-169.358827 0-93.491073 75.826092-169.317165 169.358827-169.317165zm0 0" fill="none" stroke="#212121" stroke-linecap="round" stroke-width="3" transform="matrix(.093759 0 0 -.093759 0 20.158175)"/><path d="m22.824219 13.273438h1.984375c.546875 0 .992187.445312.992187.992187v17.863281c0 .546875-.445312.992188-.992187.992188h-1.984375c-.550781 0-.992188-.445313-.992188-.992188v-17.863281c0-.546875.441407-.992187.992188-.992187zm0 0" fill="url(#i)"/><path d="m22.824219 13.273438c-.550781 0-.992188.445312-.992188.992187v.496094c0-.546875.441407-.992188.992188-.992188h1.984375c.546875 0 .992187.445313.992187.992188v-.496094c0-.546875-.445312-.992187-.992187-.992187zm0 0" fill="#fff" fill-opacity=".392157"/><path d="m21.832031 32.128906v.742188c0 .550781.441407.992187.992188.992187h1.984375c.546875 0 .992187-.441406.992187-.992187v-.742188c0 .550782-.445312.992188-.992187.992188h-1.984375c-.550781 0-.992188-.441406-.992188-.992188zm0 0" fill-opacity=".235294"/><path d="m243.435086-73.430186h21.164646c5.832776 0 10.582323 4.749547 10.582323 10.582323v190.523472c0 5.832777-4.749547 10.582323-10.582323 10.582323h-21.164646c-5.874439 0-10.582322-4.749546-10.582322-10.582323v-190.523472c0-5.832776 4.707883-10.582323 10.582322-10.582323zm0 0" fill="none" stroke="#212121" stroke-linecap="round" stroke-linejoin="round" stroke-width="3" transform="matrix(.093759 0 0 .093759 0 20.158175)"/></svg>

<?xml version="1.0" encoding="UTF-8"?>
<svg xmlns="http://www.w3.org/2000/svg" xmlns:xlink="http://www.w3.org/1999/xlink" width="48px" height="48px" viewBox="0 0 48 48" version="1.1">
<defs>
<radialGradient id="radial0" gradientUnits="userSpaceOnUse" cx="450.908936" cy="189.579361" fx="450.908936" fy="189.579361" r="21.166656" gradientTransform="matrix(0.000000261256,-0.117199,-0.210958,-0.000000152308,66.784728,95.392994)">
<stop offset="0" style="stop-color:rgb(0%,0%,0%);stop-opacity:0.313726;"/>
<stop offset="0.222222" style="stop-color:rgb(0%,0%,0%);stop-opacity:0.27451;"/>
<stop offset="1" style="stop-color:rgb(0%,0%,0%);stop-opacity:0;"/>
</radialGradient>
<radialGradient id="radial1" gradientUnits="userSpaceOnUse" cx="450.908936" cy="189.579361" fx="450.908936" fy="189.579361" r="21.166656" gradientTransform="matrix(-0.000000261256,0.117199,0.210958,0.000000152308,-19.155178,-11.291223)">
<stop offset="0" style="stop-color:rgb(0%,0%,0%);stop-opacity:0.313726;"/>
<stop offset="0.222222" style="stop-color:rgb(0%,0%,0%);stop-opacity:0.27451;"/>
<stop offset="1" style="stop-color:rgb(0%,0%,0%);stop-opacity:0;"/>
</radialGradient>
<radialGradient id="radial2" gradientUnits="userSpaceOnUse" cx="450.908936" cy="189.579361" fx="450.908936" fy="189.579361" r="21.166656" gradientTransform="matrix(-0.000000261256,-0.117199,0.210958,-0.000000152308,-19.155178,95.392994)">
<stop offset="0" style="stop-color:rgb(0%,0%,0%);stop-opacity:0.313726;"/>
<stop offset="0.222222" style="stop-color:rgb(0%,0%,0%);stop-opacity:0.27451;"/>
<stop offset="1" style="stop-color:rgb(0%,0%,0%);stop-opacity:0;"/>
</radialGradient>
<radialGradient id="radial3" gradientUnits="userSpaceOnUse" cx="450.908936" cy="189.579361" fx="450.908936" fy="189.579361" r="21.166656" gradientTransform="matrix(0.000000261256,0.117199,-0.210958,0.000000152308,66.784725,-11.291224)">
<stop offset="0" style="stop-color:rgb(0%,0%,0%);stop-opacity:0.313726;"/>
<stop offset="0.222222" style="stop-color:rgb(0%,0%,0%);stop-opacity:0.27451;"/>
<stop offset="1" style="stop-color:rgb(0%,0%,0%);stop-opacity:0;"/>
</radialGradient>
<linearGradient id="linear0" gradientUnits="userSpaceOnUse" x1="255.323059" y1="233.5" x2="255.323044" y2="254.666656" gradientTransform="matrix(0.0200401,0,0,0.093759,18.698079,20.158175)">
<stop offset="0" style="stop-color:rgb(0%,0%,0%);stop-opacity:0.27451;"/>
<stop offset="1" style="stop-color:rgb(0%,0%,0%);stop-opacity:0;"/>
</linearGradient>
<linearGradient id="linear1" gradientUnits="userSpaceOnUse" x1="254" y1="-168.666672" x2="254" y2="233.5" gradientTransform="matrix(0.093759,0,0,0.093759,0,20.158175)">
<stop offset="0" style="stop-color:rgb(100%,71.764708%,30.19608%);stop-opacity:1;"/>
<stop offset="1" style="stop-color:rgb(100%,65.490198%,14.901961%);stop-opacity:1;"/>
</linearGradient>
<linearGradient id="linear2" gradientUnits="userSpaceOnUse" x1="254" y1="-201.75" x2="254" y2="136.916672" gradientTransform="matrix(0.093759,0,0,-0.093759,0,20.158175)">
<stop offset="0" style="stop-color:rgb(87.843138%,87.843138%,87.843138%);stop-opacity:1;"/>
<stop offset="1" style="stop-color:rgb(74.117649%,74.117649%,74.117649%);stop-opacity:1;"/>
</linearGradient>
<linearGradient id="linear3" gradientUnits="userSpaceOnUse" x1="254" y1="-168.666672" x2="254" y2="233.5" gradientTransform="matrix(0.093759,0,0,0.093759,0,20.158175)">
<stop offset="0" style="stop-color:rgb(38.039216%,38.039216%,38.039216%);stop-opacity:1;"/>
<stop offset="1" style="stop-color:rgb(25.882354%,25.882354%,25.882354%);stop-opacity:1;"/>
</linearGradient>
</defs>
<g id="surface1">
<path style=" stroke:none;fill-rule:nonzero;fill:url(#radial0);" d="M 27.289062 42.050781 L 31.257812 42.050781 L 31.257812 40.066406 L 27.289062 40.066406 Z M 27.289062 42.050781 "/>
<path style=" stroke:none;fill-rule:nonzero;fill:url(#radial1);" d="M 20.339844 42.050781 L 16.371094 42.050781 L 16.371094 44.035156 L 20.339844 44.035156 Z M 20.339844 42.050781 "/>
<path style=" stroke:none;fill-rule:nonzero;fill:url(#radial2);" d="M 20.339844 42.050781 L 16.371094 42.050781 L 16.371094 40.066406 L 20.339844 40.066406 Z M 20.339844 42.050781 "/>
<path style=" stroke:none;fill-rule:nonzero;fill:url(#radial3);" d="M 27.289062 42.050781 L 31.257812 42.050781 L 31.257812 44.035156 L 27.289062 44.035156 Z M 27.289062 42.050781 "/>
<path style=" stroke:none;fill-rule:nonzero;fill:url(#linear0);" d="M 20.339844 41.554688 L 27.289062 41.554688 L 27.289062 44.035156 L 20.339844 44.035156 Z M 20.339844 41.554688 "/>
<path style=" stroke:none;fill-rule:nonzero;fill:url(#linear1);" d="M 23.816406 4.34375 C 34.226562 4.34375 42.667969 12.785156 42.667969 23.199219 C 42.667969 33.609375 34.226562 42.050781 23.816406 42.050781 C 13.402344 42.050781 4.960938 33.609375 4.960938 23.199219 C 4.960938 12.785156 13.402344 4.34375 23.816406 4.34375 Z M 23.816406 4.34375 "/>
<path style=" stroke:none;fill-rule:nonzero;fill:rgb(0%,0%,0%);fill-opacity:0.196078;" d="M 23.816406 42.050781 C 13.371094 42.050781 4.960938 33.640625 4.960938 23.199219 C 4.960938 23.136719 4.960938 23.074219 4.960938 23.011719 C 5.0625 33.371094 13.433594 41.679688 23.816406 41.679688 C 34.199219 41.679688 42.570312 33.371094 42.667969 23.011719 C 42.667969 23.074219 42.667969 23.136719 42.667969 23.199219 C 42.667969 33.640625 34.257812 42.050781 23.816406 42.050781 Z M 23.816406 42.050781 "/>
<path style=" stroke:none;fill-rule:nonzero;fill:rgb(100%,100%,100%);fill-opacity:0.392157;" d="M 23.816406 4.34375 C 13.371094 4.34375 4.960938 12.753906 4.960938 23.199219 C 4.960938 23.257812 4.960938 23.320312 4.960938 23.382812 C 5.0625 13.023438 13.433594 4.714844 23.816406 4.714844 C 34.199219 4.714844 42.570312 13.023438 42.667969 23.382812 C 42.667969 23.320312 42.667969 23.257812 42.667969 23.199219 C 42.667969 12.753906 34.257812 4.34375 23.816406 4.34375 Z M 23.816406 4.34375 "/>
<path style=" stroke:none;fill-rule:nonzero;fill:rgb(12.941177%,12.941177%,12.941177%);fill-opacity:1;" d="M 23.816406 4.203125 C 13.292969 4.203125 4.820312 12.675781 4.820312 23.199219 C 4.820312 33.71875 13.292969 42.191406 23.816406 42.191406 C 34.335938 42.191406 42.808594 33.71875 42.808594 23.199219 C 42.808594 12.675781 34.335938 4.203125 23.816406 4.203125 Z M 23.816406 4.484375 C 34.183594 4.484375 42.527344 12.828125 42.527344 23.199219 C 42.527344 33.566406 34.183594 41.910156 23.816406 41.910156 C 13.445312 41.910156 5.101562 33.566406 5.101562 23.199219 C 5.101562 12.828125 13.445312 4.484375 23.816406 4.484375 Z M 23.816406 4.484375 "/>
<path style=" stroke:none;fill-rule:nonzero;fill:url(#linear2);" d="M 23.816406 39.074219 C 32.582031 39.074219 39.691406 31.964844 39.691406 23.199219 C 39.691406 14.429688 32.582031 7.320312 23.816406 7.320312 C 15.046875 7.320312 7.9375 14.429688 7.9375 23.199219 C 7.9375 31.964844 15.046875 39.074219 23.816406 39.074219 Z M 23.816406 39.074219 "/>
<path style=" stroke:none;fill-rule:nonzero;fill:rgb(100%,100%,100%);fill-opacity:0.392157;" d="M 7.941406 23.570312 C 7.941406 23.691406 7.9375 23.816406 7.9375 23.941406 C 7.9375 32.738281 15.019531 39.816406 23.816406 39.816406 C 32.609375 39.816406 39.691406 32.738281 39.691406 23.941406 C 39.691406 23.816406 39.691406 23.691406 39.6875 23.570312 C 39.492188 32.191406 32.484375 39.074219 23.816406 39.074219 C 15.144531 39.074219 8.140625 32.191406 7.941406 23.570312 Z M 7.941406 23.570312 "/>
<path style=" stroke:none;fill-rule:nonzero;fill:rgb(0%,0%,0%);fill-opacity:0.235294;" d="M 23.816406 7.320312 C 15.019531 7.320312 7.9375 14.402344 7.9375 23.199219 C 7.9375 23.277344 7.9375 23.359375 7.941406 23.441406 C 8.074219 14.761719 15.105469 7.816406 23.816406 7.816406 C 32.527344 7.816406 39.554688 14.761719 39.6875 23.441406 C 39.691406 23.359375 39.691406 23.277344 39.691406 23.199219 C 39.691406 14.402344 32.609375 7.320312 23.816406 7.320312 Z M 23.816406 7.320312 "/>
<path style="fill:none;stroke-width:3;stroke-linecap:round;stroke-linejoin:miter;stroke:rgb(12.941177%,12.941177%,12.941177%);stroke-opacity:1;stroke-miterlimit:4;" d="M 254.017409 -201.751869 C 347.508481 -201.751869 423.334574 -125.925777 423.334574 -32.434704 C 423.334574 61.09803 347.508481 136.924123 254.017409 136.924123 C 160.484674 136.924123 84.658582 61.09803 84.658582 -32.434704 C 84.658582 -125.925777 160.484674 -201.751869 254.017409 -201.751869 Z M 254.017409 -201.751869 " transform="matrix(0.093759,0,0,-0.093759,0,20.158175)"/>
<path style=" stroke:none;fill-rule:nonzero;fill:url(#linear3);" d="M 22.824219 13.273438 L 24.808594 13.273438 C 25.355469 13.273438 25.800781 13.71875 25.800781 14.265625 L 25.800781 32.128906 C 25.800781 32.675781 25.355469 33.121094 24.808594 33.121094 L 22.824219 33.121094 C 22.273438 33.121094 21.832031 32.675781 21.832031 32.128906 L 21.832031 14.265625 C 21.832031 13.71875 22.273438 13.273438 22.824219 13.273438 Z M 22.824219 13.273438 "/>
<path style=" stroke:none;fill-rule:nonzero;fill:rgb(100%,100%,100%);fill-opacity:0.392157;" d="M 22.824219 13.273438 C 22.273438 13.273438 21.832031 13.71875 21.832031 14.265625 L 21.832031 14.761719 C 21.832031 14.214844 22.273438 13.769531 22.824219 13.769531 L 24.808594 13.769531 C 25.355469 13.769531 25.800781 14.214844 25.800781 14.761719 L 25.800781 14.265625 C 25.800781 13.71875 25.355469 13.273438 24.808594 13.273438 Z M 22.824219 13.273438 "/>
<path style=" stroke:none;fill-rule:nonzero;fill:rgb(0%,0%,0%);fill-opacity:0.235294;" d="M 21.832031 32.128906 L 21.832031 32.871094 C 21.832031 33.421875 22.273438 33.863281 22.824219 33.863281 L 24.808594 33.863281 C 25.355469 33.863281 25.800781 33.421875 25.800781 32.871094 L 25.800781 32.128906 C 25.800781 32.679688 25.355469 33.121094 24.808594 33.121094 L 22.824219 33.121094 C 22.273438 33.121094 21.832031 32.679688 21.832031 32.128906 Z M 21.832031 32.128906 "/>
<path style="fill:none;stroke-width:3;stroke-linecap:round;stroke-linejoin:round;stroke:rgb(12.941177%,12.941177%,12.941177%);stroke-opacity:1;stroke-miterlimit:4;" d="M 243.435086 -73.430186 L 264.599732 -73.430186 C 270.432508 -73.430186 275.182055 -68.680639 275.182055 -62.847863 L 275.182055 127.675609 C 275.182055 133.508386 270.432508 138.257932 264.599732 138.257932 L 243.435086 138.257932 C 237.560647 138.257932 232.852764 133.508386 232.852764 127.675609 L 232.852764 -62.847863 C 232.852764 -68.680639 237.560647 -73.430186 243.435086 -73.430186 Z M 243.435086 -73.430186 " transform="matrix(0.093759,0,0,0.093759,0,20.158175)"/>
</g>
</svg>
